F[BALLADE
CUT[Der schwatzhafte Junggeselle
    Es waren drei Gesellen,]
CNR[die taeten was sie wellen.]
REG[Osteuropa, UdSSR, Wolga - Gebiet, Neu - Galga]
SRC[6, S. 278
    ????]
KEY[Q0139H 16  F 4/4]
MEL[-5_  1__-7_-6_-5__4__  3__5__1_0__
    -5_  1__-7_-6_-5__4__  3__5__1_0_
    1_2_  3_.3333_3__2_3_  4_4_3_3_2__.
    3_  2__2_2_2__1_2_  3_4_3_2_1__0_ //] >>
FCT[Ballade, Indiskretion, verweigerter Beischlaf]
CMT[Zweistimmig notiert, Oberstimme kodiert.]
